src/assets/icons/react-icon-edited.svg

<?xml version="1.0" encoding="UTF-8"?>
<svg viewBox="0 0 646 646" xmlns="http://www.w3.org/2000/svg">
<circle cx="323" cy="323" r="323" fill="#20232A"/>
<path d="m596.67 323.51c0-36.22-45.358-70.544-114.9-91.83 16.048-70.879 8.915-127.27-22.512-145.32-7.244-4.2349-15.714-6.2409-24.964-6.2409v24.853c5.127 0 9.25 1.003 12.705 2.897 15.157 8.693 21.732 41.792 16.605 84.363-1.225 10.476-3.232 21.509-5.683 32.765-21.843-5.349-45.692-9.473-70.767-12.147-15.045-20.618-30.648-39.34-46.361-55.723 36.331-33.767 70.433-52.267 93.613-52.267v-24.852c-30.647 0-70.767 21.843-111.33 59.734-40.566-37.668-80.686-59.288-111.33-59.288v24.852c23.069 0 57.283 18.388 93.614 51.933-15.603 16.382-31.205 34.993-46.027 55.611-25.186 2.674-49.035 6.798-70.879 12.258-2.563-11.144-4.457-21.954-5.795-32.318-5.238-42.572 1.226-75.671 16.271-84.475 3.344-2.006 7.69-2.898 12.816-2.898v-24.852c-9.361 0-17.831 2.006-25.186 6.2409-31.316 18.054-38.337 74.333-22.177 144.99-69.319 21.397-114.45 55.611-114.45 91.719 0 36.219 45.358 70.544 114.9 91.83-16.048 70.878-8.915 127.27 22.512 145.32 7.244 4.235 15.714 6.241 25.075 6.241 30.647 0 70.767-21.843 111.33-59.734 40.566 37.668 80.685 59.288 111.33 59.288 9.361 0 17.831-2.006 25.186-6.241 31.316-18.054 38.337-74.333 22.177-144.99 69.096-21.286 114.23-55.61 114.23-91.718zm-145.1-74.334c-4.123 14.377-9.25 29.199-15.045 44.021-4.569-8.916-9.361-17.831-14.599-26.747-5.126-8.915-10.587-17.608-16.048-26.078 15.825 2.341 31.093 5.238 45.692 8.804zm-51.041 118.69c-8.693 15.045-17.608 29.309-26.858 42.571-16.605 1.449-33.433 2.229-50.373 2.229-16.828 0-33.656-0.78-50.15-2.117-9.25-13.262-18.277-27.416-26.969-42.349-8.47-14.599-16.16-29.421-23.181-44.355 6.91-14.933 14.711-29.867 23.069-44.466 8.693-15.045 17.608-29.31 26.858-42.572 16.605-1.449 33.434-2.229 50.373-2.229 16.828 0 33.656 0.78 50.15 2.118 9.25 13.262 18.277 27.415 26.969 42.348 8.47 14.6 16.16 29.422 23.181 44.355-7.021 14.934-14.711 29.867-23.069 44.467zm35.996-14.488c6.018 14.933 11.145 29.867 15.38 44.355-14.599 3.566-29.979 6.575-45.915 8.915 5.46-8.581 10.921-17.385 16.048-26.412 5.126-8.916 9.918-17.943 14.487-26.858zm-113 118.91c-10.364-10.699-20.729-22.623-30.982-35.662 10.03 0.445 20.283 0.78 30.648 0.78 10.475 0 20.84-0.223 30.981-0.78-10.03 13.039-20.394 24.963-30.647 35.662zm-82.915-65.641c-15.825-2.34-31.093-5.238-45.692-8.804 4.124-14.376 9.25-29.198 15.045-44.02 4.569 8.915 9.362 17.831 14.599 26.746 5.238 8.916 10.588 17.608 16.048 26.078zm82.358-231.92c10.364 10.698 20.728 22.623 30.981 35.662-10.03-0.446-20.283-0.78-30.647-0.78-10.476 0-20.84 0.223-30.981 0.78 10.03-13.039 20.394-24.964 30.647-35.662zm-82.469 65.64c-5.461 8.582-10.922 17.386-16.048 26.413-5.126 8.915-9.919 17.831-14.488 26.746-6.018-14.933-11.144-29.867-15.379-44.355 14.599-3.454 29.978-6.463 45.915-8.804zm-100.86 139.53c-39.451-16.829-64.972-38.895-64.972-56.391 0-17.497 25.521-39.674 64.972-56.391 9.584-4.124 20.06-7.801 30.87-11.256 6.352 21.843 14.711 44.578 25.075 67.87-10.253 23.18-18.5 45.803-24.741 67.535-11.033-3.455-21.508-7.244-31.204-11.367zm59.957 159.25c-15.157-8.692-21.732-41.791-16.605-84.363 1.226-10.476 3.232-21.509 5.683-32.765 21.843 5.35 45.693 9.473 70.767 12.148 15.045 20.617 30.648 39.34 46.361 55.722-36.331 33.768-70.432 52.267-93.613 52.267-5.015-0.111-9.25-1.114-12.593-3.009zm264.35-84.92c5.238 42.572-1.226 75.671-16.271 84.475-3.344 2.006-7.69 2.897-12.816 2.897-23.069 0-57.283-18.388-93.613-51.933 15.602-16.382 31.204-34.993 46.026-55.611 25.186-2.674 49.036-6.798 70.879-12.258 2.563 11.255 4.569 22.066 5.795 32.43zm42.906-74.333c-9.584 4.123-20.06 7.801-30.87 11.255-6.353-21.843-14.711-44.577-25.075-67.869 10.253-23.181 18.499-45.804 24.74-67.535 11.033 3.454 21.509 7.243 31.316 11.367 39.451 16.828 64.972 38.894 64.972 56.391-0.111 17.496-25.632 39.674-65.083 56.391z" fill="#61DAFB"/>
<path d="m323.19 374.44c28.128 0 50.93-22.802 50.93-50.93s-22.802-50.93-50.93-50.93-50.93 22.802-50.93 50.93 22.802 50.93 50.93 50.93z" fill="#61DAFB"/>
</svg>

<svg width="646" height="646" viewBox="0 0 646 646" fill="none" xmlns="http://www.w3.org/2000/svg">
<circle cx="323" cy="323" r="323" fill="#20232A"/>
<path d="M596.673 323.506C596.673 287.286 551.315 252.962 481.774 231.676C497.822 160.797 490.689 104.406 459.262 86.3523C452.018 82.1174 443.548 80.1114 434.298 80.1114V104.964C439.425 104.964 443.548 105.967 447.003 107.861C462.16 116.554 468.735 149.653 463.608 192.224C462.383 202.7 460.376 213.733 457.925 224.989C436.082 219.64 412.233 215.516 387.158 212.842C372.113 192.224 356.51 173.502 340.797 157.119C377.128 123.352 411.23 104.852 434.41 104.852V80C403.763 80 363.643 101.843 323.077 139.734C282.511 102.066 242.391 80.4458 211.744 80.4458V105.298C234.813 105.298 269.027 123.686 305.358 157.231C289.755 173.613 274.153 192.224 259.331 212.842C234.145 215.516 210.296 219.64 188.452 225.1C185.889 213.956 183.995 203.146 182.657 192.782C177.419 150.21 183.883 117.111 198.928 108.307C202.272 106.301 206.618 105.409 211.744 105.409V80.5572C202.383 80.5572 193.913 82.5632 186.558 86.7981C155.242 104.852 148.221 161.131 164.381 231.787C95.0622 253.184 49.9272 287.398 49.9272 323.506C49.9272 359.725 95.2851 394.05 164.826 415.336C148.778 486.214 155.911 542.605 187.338 560.659C194.582 564.894 203.052 566.9 212.413 566.9C243.06 566.9 283.18 545.057 323.746 507.166C364.312 544.834 404.431 566.454 435.079 566.454C444.44 566.454 452.91 564.448 460.265 560.213C491.581 542.159 498.602 485.88 482.442 415.224C551.538 393.938 596.673 359.614 596.673 323.506ZM451.572 249.172C447.449 263.549 442.322 278.371 436.527 293.193C431.958 284.277 427.166 275.362 421.928 266.446C416.802 257.531 411.341 248.838 405.88 240.368C421.705 242.709 436.973 245.606 451.572 249.172ZM400.531 367.861C391.838 382.906 382.923 397.17 373.673 410.432C357.068 411.881 340.24 412.661 323.3 412.661C306.472 412.661 289.644 411.881 273.15 410.544C263.9 397.282 254.873 383.128 246.181 368.195C237.711 353.596 230.021 338.774 223 323.84C229.91 308.907 237.711 293.973 246.069 279.374C254.762 264.329 263.677 250.064 272.927 236.802C289.532 235.353 306.361 234.573 323.3 234.573C340.128 234.573 356.956 235.353 373.45 236.691C382.7 249.953 391.727 264.106 400.419 279.039C408.889 293.639 416.579 308.461 423.6 323.394C416.579 338.328 408.889 353.261 400.531 367.861ZM436.527 353.373C442.545 368.306 447.672 383.24 451.907 397.728C437.308 401.294 421.928 404.303 405.992 406.643C411.452 398.062 416.913 389.258 422.04 380.231C427.166 371.315 431.958 362.288 436.527 353.373ZM323.523 472.284C313.159 461.585 302.794 449.661 292.541 436.622C302.571 437.067 312.824 437.402 323.189 437.402C333.664 437.402 344.029 437.179 354.17 436.622C344.14 449.661 333.776 461.585 323.523 472.284ZM240.608 406.643C224.783 404.303 209.515 401.405 194.916 397.839C199.04 383.463 204.166 368.641 209.961 353.819C214.53 362.734 219.323 371.65 224.56 380.565C229.798 389.481 235.148 398.173 240.608 406.643ZM322.966 174.728C333.33 185.426 343.694 197.351 353.947 210.39C343.917 209.944 333.664 209.61 323.3 209.61C312.824 209.61 302.46 209.833 292.319 210.39C302.349 197.351 312.713 185.426 322.966 174.728ZM240.497 240.368C235.036 248.95 229.575 257.754 224.449 266.781C219.323 275.696 214.53 284.612 209.961 293.527C203.943 278.594 198.817 263.66 194.582 249.172C209.181 245.718 224.56 242.709 240.497 240.368ZM139.64 379.897C100.189 363.068 74.6679 341.002 74.6679 323.506C74.6679 306.009 100.189 283.832 139.64 267.115C149.224 262.991 159.7 259.314 170.51 255.859C176.862 277.702 185.221 300.437 195.585 323.729C185.332 346.909 177.085 369.532 170.844 391.264C159.811 387.809 149.336 384.02 139.64 379.897ZM199.597 539.15C184.44 530.458 177.865 497.359 182.992 454.787C184.218 444.311 186.224 433.278 188.675 422.022C210.518 427.372 234.368 431.495 259.442 434.17C274.487 454.787 290.09 473.51 305.803 489.892C269.472 523.66 235.371 542.159 212.19 542.159C207.175 542.048 202.94 541.045 199.597 539.15ZM463.943 454.23C469.181 496.802 462.717 529.901 447.672 538.705C444.328 540.711 439.982 541.602 434.856 541.602C411.787 541.602 377.573 523.214 341.243 489.669C356.845 473.287 372.447 454.676 387.269 434.058C412.455 431.384 436.305 427.26 458.148 421.8C460.711 433.055 462.717 443.866 463.943 454.23ZM506.849 379.897C497.265 384.02 486.789 387.698 475.979 391.152C469.626 369.309 461.268 346.575 450.904 323.283C461.157 300.102 469.403 277.479 475.644 255.748C486.677 259.202 497.153 262.991 506.96 267.115C546.411 283.943 571.932 306.009 571.932 323.506C571.821 341.002 546.3 363.18 506.849 379.897Z" fill="#61DAFB"/>
<path d="M323.189 374.435C351.317 374.435 374.119 351.633 374.119 323.505C374.119 295.377 351.317 272.575 323.189 272.575C295.061 272.575 272.259 295.377 272.259 323.505C272.259 351.633 295.061 374.435 323.189 374.435Z" fill="#61DAFB"/>
</svg>
